remix/Design/drop-line.svg

<svg viewBox="0 0 24 24" fill="currentColor" xmlns="http://www.w3.org/2000/svg"><path d="M12 3.09723L7.05025 8.04697C4.31658 10.7806 4.31658 15.2128 7.05025 17.9465C9.78392 20.6801 14.2161 20.6801 16.9497 17.9465C19.6834 15.2128 19.6834 10.7806 16.9497 8.04697L12 3.09723ZM12 0.268799L18.364 6.63276C21.8787 10.1475 21.8787 15.846 18.364 19.3607C14.8492 22.8754 9.15076 22.8754 5.63604 19.3607C2.12132 15.846 2.12132 10.1475 5.63604 6.63276L12 0.268799Z"/></svg>

<svg viewBox="0 0 24 24" xmlns="http://www.w3.org/2000/svg"><path fill="none" d="M0 0h24v24H0Z"/><path d="M12 3.1L7.05 8.05v0c-2.74 2.73-2.74 7.16 0 9.89 2.73 2.73 7.16 2.73 9.89-.01 2.73-2.74 2.73-7.17 0-9.9l-4.95-4.95Zm0-2.83l6.36 6.36V6.62c3.51 3.51 3.51 9.21-.01 12.72 -3.52 3.51-9.22 3.51-12.73-.01C2.1 15.81 2.1 10.11 5.61 6.6L11.97.23Z"/></svg>
